icons/weibo-fill.svg

<svg viewBox="0 0 24 24" fill="currentColor" xmlns="http://www.w3.org/2000/svg">
    <path d="M4.27799 8.59201C7.05085 5.8217 10.282 4.55876 11.4966 5.77587C12.0338 6.31312 12.0848 7.23996 11.741 8.34757C11.5628 8.9052 12.2655 8.5971 12.2655 8.5971C14.5062 7.66008 16.4618 7.60407 17.1747 8.62511C17.5541 9.16746 17.5184 9.93133 17.1671 10.8149C17.0041 11.2223 17.2154 11.2859 17.5261 11.3776C18.789 11.7697 20.1945 12.7144 20.1945 14.3822C20.1945 17.1448 16.2148 20.6205 10.2311 20.6205C5.66569 20.6205 1.00098 18.4078 1.00098 14.7692C1.00098 12.8671 2.20535 10.6672 4.27799 8.59201ZM16.4108 14.3338C16.174 11.9429 13.0294 10.2954 9.38829 10.657C5.74717 11.016 2.9845 13.2465 3.2213 15.6375C3.4581 18.0309 6.60271 19.6758 10.2438 19.3168C13.885 18.9552 16.6451 16.7247 16.4108 14.3338ZM6.16221 14.4382C6.91589 12.9104 8.87395 12.0473 10.6079 12.4979C12.4005 12.9614 13.3146 14.6521 12.5838 16.2969C11.8403 17.98 9.70148 18.8763 7.88856 18.2906C6.13674 17.7254 5.39579 15.9965 6.16221 14.4382ZM8.8765 15.0162C8.31378 14.7794 7.58556 15.0238 7.23672 15.5687C6.88279 16.1162 7.0483 16.7705 7.60847 17.0252C8.17628 17.2823 8.93252 17.0379 9.2839 16.4752C9.63019 15.9074 9.44686 15.2581 8.8765 15.0162ZM10.2642 14.4382C10.0478 14.3542 9.77787 14.456 9.65056 14.6699C9.52834 14.8838 9.59709 15.1282 9.81352 15.2173C10.0325 15.309 10.3151 15.2046 10.4424 14.9856C10.5647 14.7666 10.4857 14.5197 10.2642 14.4382ZM15.9576 2.92408C17.9258 2.50649 20.0545 3.12017 21.5008 4.71918C22.947 6.31822 23.3341 8.50034 22.7204 10.4228C22.5796 10.8639 22.1036 11.1075 21.6612 10.9626C21.2181 10.8174 20.9762 10.3438 21.1188 9.90078C21.5568 8.54108 21.2806 6.98652 20.2531 5.84971C19.2244 4.71154 17.712 4.27613 16.3115 4.57404C15.8558 4.67099 15.41 4.37994 15.3109 3.92475C15.2115 3.46897 15.5018 3.02078 15.9576 2.92408ZM16.584 5.84971C17.5414 5.64601 18.5802 5.94392 19.283 6.72307C19.9858 7.50222 20.1742 8.56655 19.8737 9.49847C19.7511 9.87865 19.3409 10.089 18.9596 9.96443C18.5777 9.83967 18.3714 9.43227 18.4962 9.04779C18.6464 8.59201 18.5522 8.07258 18.2085 7.69064C17.8622 7.31125 17.3555 7.16611 16.887 7.26542C16.4949 7.35199 16.1104 7.09991 16.0263 6.71034C15.9423 6.31822 16.1917 5.93316 16.584 5.84971Z"/>
</svg>

<svg xmlns="http://www.w3.org/2000/svg" viewBox="0 0 24 24">
    <g>
        <path fill="none" d="M0 0h24v24H0z"/>
        <path fill-rule="nonzero" d="M17.525 11.378c1.263.392 2.669 1.336 2.669 3.004 0 2.763-3.98 6.239-9.964 6.239-4.565 0-9.23-2.213-9.23-5.852 0-1.902 1.204-4.102 3.277-6.177 2.773-2.77 6.004-4.033 7.219-2.816.537.537.588 1.464.244 2.572-.178.557.525.25.525.25 2.24-.938 4.196-.994 4.909.027.38.543.343 1.306-.008 2.19-.163.407.048.471.36.563zm-7.282 7.939c3.641-.362 6.401-2.592 6.167-4.983-.237-2.391-3.382-4.038-7.023-3.677-3.64.36-6.403 2.59-6.167 4.98.237 2.394 3.382 4.039 7.023 3.68zM6.16 14.438c.754-1.527 2.712-2.39 4.446-1.94 1.793.463 2.707 2.154 1.976 3.8-.744 1.682-2.882 2.578-4.695 1.993-1.752-.566-2.493-2.294-1.727-3.853zm1.446 2.587c.568.257 1.325.013 1.676-.55.346-.568.163-1.217-.407-1.459-.563-.237-1.291.008-1.64.553-.354.547-.189 1.202.371 1.456zm2.206-1.808c.219.092.501-.012.628-.231.123-.22.044-.466-.178-.548-.216-.084-.486.018-.613.232-.123.214-.054.458.163.547zM19.873 9.5a.725.725 0 1 1-1.378-.451 1.38 1.38 0 0 0-.288-1.357 1.395 1.395 0 0 0-1.321-.425.723.723 0 1 1-.303-1.416 2.836 2.836 0 0 1 3.29 3.649zm-3.916-6.575A5.831 5.831 0 0 1 21.5 4.72a5.836 5.836 0 0 1 1.22 5.704.838.838 0 0 1-1.06.54.844.844 0 0 1-.542-1.062 4.143 4.143 0 0 0-4.807-5.327.845.845 0 0 1-.354-1.65z"/>
    </g>
</svg>
